X: 264
T: Humours of Kesh
R: jig
M: 6/8
L: 1/8
K: Gmaj
A|BGG Bcd|ecc efg|dcB gdB|ABA ABc|
~B2G Bcd|~e2c efg|dcB gdB|AGF G2:|
f|~g3 bag|fed ^cde|dcB gdB|ABA ABd|
~g3 bag|fed ^cde|dcB gdB|AGF GBd|
~g3 bag|fed ^cde|dcB gdB|ABA ABc|
BAG Bcd|edc efg|dcB gdB|cAF G2||

